public/brands/nodejs-light.svg

<svg width="267" height="80" viewBox="0 0 267 80" fill="none" xmlns="http://www.w3.org/2000/svg"><mask id="mask0_1804_2337" maskUnits="userSpaceOnUse" x="0" y="0" width="267" height="80" style="mask-type: luminance;"><path d="M267 0H0V79.3784H267V0Z" fill="white"></path></mask><g mask="url(#mask0_1804_2337)"><path d="M234.983 78.7547C234.292 78.7547 233.648 78.5695 233.05 78.2452L226.929 74.5871C226.008 74.0776 226.469 73.8924 226.745 73.7998C227.987 73.3829 228.217 73.2903 229.506 72.5495C229.644 72.4569 229.828 72.5033 229.966 72.5959L234.66 75.4206C234.844 75.5132 235.074 75.5132 235.212 75.4206L253.575 64.7235C253.758 64.6309 253.852 64.4457 253.852 64.2143V42.8665C253.852 42.6351 253.758 42.4499 253.575 42.3573L235.212 31.7067C235.028 31.614 234.798 31.614 234.66 31.7067L216.298 42.3573C216.114 42.4499 216.022 42.6813 216.022 42.8665V64.2143C216.022 64.3995 216.114 64.6309 216.298 64.7235L221.314 67.641C224.029 69.0301 225.732 67.4094 225.732 65.7886V44.7189C225.732 44.4411 225.962 44.1633 226.285 44.1633H228.632C228.908 44.1633 229.184 44.3947 229.184 44.7189V65.7886C229.184 69.447 227.205 71.577 223.753 71.577C222.695 71.577 221.867 71.577 219.519 70.4195L214.687 67.641C213.491 66.9463 212.754 65.6498 212.754 64.2604V42.913C212.754 41.5236 213.491 40.2271 214.687 39.5324L233.05 28.8356C234.2 28.1873 235.765 28.1873 236.915 28.8356L255.278 39.5324C256.474 40.2271 257.21 41.5236 257.21 42.913V64.2604C257.21 65.6498 256.474 66.9463 255.278 67.641L236.915 78.3378C236.363 78.5695 235.673 78.7547 234.983 78.7547Z" fill="#5FA04E"></path><path d="M240.69 64.075C232.635 64.075 230.978 60.3704 230.978 57.2215C230.978 56.9437 231.208 56.6658 231.53 56.6658H233.923C234.2 56.6658 234.43 56.8511 234.43 57.1289C234.798 59.5831 235.856 60.7873 240.735 60.7873C244.601 60.7873 246.258 59.9074 246.258 57.8236C246.258 56.6197 245.796 55.7398 239.768 55.1377C234.752 54.6282 231.622 53.5169 231.622 49.4881C231.622 45.7374 234.752 43.5145 239.998 43.5145C245.89 43.5145 248.789 45.5521 249.157 49.9976C249.157 50.1366 249.111 50.2754 249.02 50.4144C248.926 50.507 248.789 50.5997 248.649 50.5997H246.21C245.982 50.5997 245.751 50.4144 245.705 50.1828C245.152 47.6359 243.725 46.8025 239.952 46.8025C235.718 46.8025 235.212 48.2842 235.212 49.3955C235.212 50.7384 235.81 51.1553 241.517 51.8962C247.177 52.637 249.847 53.7021 249.847 57.6845C249.847 61.7595 246.487 64.075 240.69 64.075Z" fill="#5FA04E"></path><path d="M267.2 41.6621C267.2 43.6071 265.588 45.2279 263.654 45.2279C261.722 45.2279 260.111 43.6533 260.111 41.6621C260.111 39.6247 261.768 38.0966 263.654 38.0966C265.542 38.0966 267.2 39.6709 267.2 41.6621ZM260.664 41.6621C260.664 43.3293 261.999 44.6722 263.608 44.6722C265.266 44.6722 266.601 43.2829 266.601 41.6621C266.601 39.9951 265.266 38.6986 263.608 38.6986C262.045 38.6986 260.664 39.9951 260.664 41.6621ZM262.321 39.6709H263.702C264.162 39.6709 265.083 39.6709 265.083 40.736C265.083 41.4769 264.621 41.6159 264.344 41.7085C264.898 41.7547 264.943 42.1254 264.989 42.6346C265.035 42.9588 265.083 43.5145 265.174 43.6997H264.344C264.344 43.5145 264.207 42.4958 264.207 42.4494C264.162 42.218 264.07 42.1254 263.794 42.1254H263.103V43.7459H262.321V39.6709ZM263.057 41.4307H263.654C264.162 41.4307 264.253 41.0603 264.253 40.875C264.253 40.3194 263.885 40.3194 263.654 40.3194H263.012V41.4307H263.057Z" fill="#5FA04E"></path><path fill-rule="evenodd" clip-rule="evenodd" d="M43.6737 41.9539C43.6737 41.1204 43.2136 40.3334 42.4773 39.9165L23.0104 28.5712C22.6883 28.386 22.3201 28.2934 21.9519 28.2472C21.9059 28.2472 21.7679 28.2472 21.7679 28.2472C21.3997 28.2472 21.0315 28.386 20.7094 28.5712L1.19654 39.8701C0.460209 40.287 0 41.0743 0 41.9539L0.0460209 72.3315C0.0460209 72.7484 0.276126 73.165 0.644293 73.3502C1.01246 73.5819 1.47267 73.5819 1.79482 73.3502L13.3921 66.682C14.1284 66.2653 14.5886 65.4781 14.5886 64.6446V50.4282C14.5886 49.5947 15.0488 48.8074 15.7852 48.3908L20.7094 45.5197C21.0776 45.288 21.4917 45.1954 21.9059 45.1954C22.3201 45.1954 22.7343 45.288 23.0565 45.5197L27.9806 48.3908C28.7169 48.8074 29.1773 49.5947 29.1773 50.4282V64.6446C29.1773 65.4781 29.6375 66.2653 30.3738 66.682L41.8791 73.3502C42.2471 73.5819 42.7073 73.5819 43.0755 73.3502C43.4438 73.165 43.6737 72.7484 43.6737 72.3315V41.9539Z" fill="#333333"></path><path fill-rule="evenodd" clip-rule="evenodd" d="M137.465 0.138922C137.096 -0.0463072 136.636 -0.0463072 136.314 0.138922C135.946 0.370456 135.716 0.740915 135.716 1.15768V31.2573C135.716 31.5351 135.578 31.8129 135.301 31.9984C135.025 32.1372 134.749 32.1372 134.473 31.9984L129.595 29.1735C128.859 28.7569 127.984 28.7569 127.248 29.1735L107.735 40.5188C106.999 40.9357 106.539 41.7227 106.539 42.5562V65.2004C106.539 66.0342 106.999 66.8212 107.735 67.2381L127.248 78.5834C127.984 79 128.859 79 129.595 78.5834L149.108 67.2381C149.844 66.8212 150.304 66.0342 150.304 65.2004V8.75207C150.304 7.87222 149.844 7.085 149.108 6.66824L137.465 0.138922ZM135.67 57.7451C135.67 57.9765 135.578 58.1617 135.394 58.2544L128.72 62.1444C128.536 62.237 128.306 62.237 128.122 62.1444L121.449 58.2544C121.265 58.1617 121.173 57.9303 121.173 57.7451V49.9656C121.173 49.7339 121.265 49.5487 121.449 49.4561L128.122 45.5663C128.306 45.4737 128.536 45.4737 128.72 45.5663L135.394 49.4561C135.578 49.5487 135.67 49.7803 135.67 49.9656V57.7451Z" fill="#333333"></path><path fill-rule="evenodd" clip-rule="evenodd" d="M202.398 49.7801C203.135 49.3632 203.549 48.5762 203.549 47.7425V42.2319C203.549 41.3985 203.089 40.6112 202.398 40.1946L183.023 28.8957C182.287 28.4788 181.413 28.4788 180.676 28.8957L161.164 40.2407C160.427 40.6576 159.967 41.4449 159.967 42.2784V64.9226C159.967 65.7561 160.427 66.5434 161.164 66.96L180.538 78.0737C181.275 78.4905 182.149 78.4905 182.839 78.0737L194.575 71.4983C194.943 71.3131 195.173 70.8962 195.173 70.4793C195.173 70.0627 194.943 69.6459 194.575 69.4606L174.97 58.1153C174.602 57.8839 174.372 57.5135 174.372 57.0966V50.0117C174.372 49.5949 174.602 49.178 174.97 48.9928L181.091 45.4735C181.459 45.2421 181.919 45.2421 182.287 45.4735L188.408 48.9928C188.776 49.2245 189.006 49.5949 189.006 50.0117V55.5685C189.006 55.9853 189.236 56.4019 189.605 56.5872C189.973 56.8188 190.433 56.8188 190.801 56.5872L202.398 49.7801Z" fill="#333333"></path><path fill-rule="evenodd" clip-rule="evenodd" d="M181.551 48.7155C181.689 48.6228 181.874 48.6228 182.012 48.7155L185.739 50.8919C185.877 50.9845 185.969 51.1235 185.969 51.3087V55.6615C185.969 55.8468 185.877 55.9858 185.739 56.0784L182.012 58.2548C181.874 58.3474 181.689 58.3474 181.551 58.2548L177.824 56.0784C177.686 55.9858 177.594 55.8468 177.594 55.6615V51.3087C177.594 51.1235 177.686 50.9845 177.824 50.8919L181.551 48.7155Z" fill="#5FA04E"></path><path d="M76.3012 28.9882C75.5647 28.5716 74.6903 28.5716 73.954 28.9882L54.5792 40.241C53.8429 40.6578 53.4287 41.4449 53.4287 42.2786V64.83C53.4287 65.6637 53.8889 66.4507 54.5792 66.8676L73.954 78.1203C74.6903 78.5369 75.5647 78.5369 76.3012 78.1203L95.6758 66.8676C96.4123 66.4507 96.8263 65.6637 96.8263 64.83V42.2786C96.8263 41.4449 96.3662 40.6578 95.6758 40.241L76.3012 28.9882Z" fill="url(#paint0_linear_1804_2337)"></path><path d="M95.7218 40.241L76.2551 28.9882C76.0709 28.8956 75.8409 28.803 75.6567 28.7568L53.843 66.3119C54.027 66.5433 54.257 66.7286 54.4872 66.8676L73.9541 78.1203C74.5062 78.4443 75.1506 78.5369 75.7488 78.3517L96.2282 40.6578C96.0901 40.4726 95.9059 40.3336 95.7218 40.241Z" fill="url(#paint1_linear_1804_2337)"></path><path d="M95.7224 66.8669C96.2747 66.5427 96.6889 65.9871 96.8729 65.385L75.5651 28.7098C75.013 28.6172 74.4146 28.6633 73.9085 28.9876L54.5796 40.1939L75.427 78.4437C75.7031 78.3973 76.0255 78.3046 76.3016 78.1659L95.7224 66.8669Z" fill="url(#paint2_linear_1804_2337)"></path></g><defs><linearGradient id="paint0_linear_1804_2337" x1="83.0183" y1="37.3689" x2="65.3246" y2="73.2407" gradientUnits="userSpaceOnUse"><stop stop-color="#3F873F"></stop><stop offset="0.3296" stop-color="#3F8B3D"></stop><stop offset="0.6367" stop-color="#3E9638"></stop><stop offset="0.9341" stop-color="#3DA92E"></stop><stop offset="1" stop-color="#3DAE2B"></stop></linearGradient><linearGradient id="paint1_linear_1804_2337" x1="72.183" y1="56.1876" x2="121.552" y2="19.937" gradientUnits="userSpaceOnUse"><stop offset="0.1376" stop-color="#3F873F"></stop><stop offset="0.4016" stop-color="#52A044"></stop><stop offset="0.7129" stop-color="#64B749"></stop><stop offset="0.9081" stop-color="#6ABF4B"></stop></linearGradient><linearGradient id="paint2_linear_1804_2337" x1="52.7188" y1="53.5463" x2="97.551" y2="53.5463" gradientUnits="userSpaceOnUse"><stop offset="0.0919165" stop-color="#6ABF4B"></stop><stop offset="0.2871" stop-color="#64B749"></stop><stop offset="0.5984" stop-color="#52A044"></stop><stop offset="0.8624" stop-color="#3F873F"></stop></linearGradient></defs></svg>

<svg xmlns="http://www.w3.org/2000/svg" width="267" height="80" fill="none" viewBox="0 0 267 80">
  <mask id="a" width="267" height="80" x="0" y="0" maskUnits="userSpaceOnUse" style="mask-type:luminance">
    <path fill="#fff" d="M267 0H0v79.378h267V0Z"/>
  </mask>
  <g mask="url(#a)">
    <path fill="#5FA04E" d="M234.983 78.755a4.012 4.012 0 0 1-1.933-.51l-6.121-3.658c-.921-.51-.46-.695-.184-.787 1.242-.417 1.472-.51 2.761-1.25.138-.093.322-.047.46.046l4.694 2.825c.184.092.414.092.552 0l18.363-10.698c.183-.092.277-.277.277-.509V42.867c0-.232-.094-.417-.277-.51l-18.363-10.65c-.184-.093-.414-.093-.552 0l-18.362 10.65c-.184.093-.276.324-.276.51v21.347c0 .186.092.417.276.51l5.016 2.917c2.715 1.39 4.418-.232 4.418-1.852v-21.07c0-.278.23-.556.553-.556h2.347c.276 0 .552.232.552.556v21.07c0 3.658-1.979 5.788-5.431 5.788-1.058 0-1.886 0-4.234-1.157l-4.832-2.779a3.914 3.914 0 0 1-1.933-3.38V42.912c0-1.39.737-2.686 1.933-3.38l18.363-10.697c1.15-.649 2.715-.649 3.865 0l18.363 10.696a3.913 3.913 0 0 1 1.932 3.381V64.26c0 1.39-.736 2.686-1.932 3.381l-18.363 10.697c-.552.232-1.242.417-1.932.417Z"/>
    <path fill="#5FA04E" d="M240.69 64.075c-8.055 0-9.712-3.705-9.712-6.854 0-.277.23-.555.552-.555h2.393c.277 0 .507.185.507.463.368 2.454 1.426 3.658 6.305 3.658 3.866 0 5.523-.88 5.523-2.963 0-1.204-.462-2.084-6.49-2.686-5.016-.51-8.146-1.621-8.146-5.65 0-3.75 3.13-5.974 8.376-5.974 5.892 0 8.791 2.038 9.159 6.484a.757.757 0 0 1-.137.416c-.094.093-.231.186-.371.186h-2.439a.54.54 0 0 1-.505-.417c-.553-2.547-1.98-3.38-5.753-3.38-4.234 0-4.74 1.481-4.74 2.593 0 1.342.598 1.76 6.305 2.5 5.66.741 8.33 1.806 8.33 5.788 0 4.076-3.36 6.391-9.157 6.391Zm26.51-22.413c0 1.945-1.612 3.566-3.546 3.566a3.556 3.556 0 0 1-3.543-3.566 3.556 3.556 0 0 1 3.543-3.565c1.888 0 3.546 1.574 3.546 3.565Zm-6.536 0c0 1.667 1.335 3.01 2.944 3.01 1.658 0 2.993-1.39 2.993-3.01 0-1.667-1.335-2.963-2.993-2.963a2.975 2.975 0 0 0-2.944 2.963Zm1.657-1.991h1.381c.46 0 1.381 0 1.381 1.065 0 .74-.462.88-.739.973.554.046.599.416.645.926.046.324.094.88.185 1.065h-.83c0-.186-.137-1.204-.137-1.25-.045-.232-.137-.325-.413-.325h-.691v1.62h-.782v-4.074Zm.736 1.76h.597c.508 0 .599-.37.599-.556 0-.556-.368-.556-.599-.556h-.642v1.112h.045Z"/>
    <path fill="#333" fill-rule="evenodd" d="M43.674 41.954c0-.834-.46-1.62-1.197-2.038L23.01 28.572c-.322-.185-.69-.278-1.058-.324h-.184c-.368 0-.736.139-1.059.324l-19.512 11.3A2.378 2.378 0 0 0 0 41.953l.046 30.378c0 .416.23.833.598 1.018.368.232.829.232 1.15 0l11.598-6.668a2.358 2.358 0 0 0 1.197-2.037V50.428c0-.833.46-1.62 1.196-2.037l4.924-2.871a2.218 2.218 0 0 1 1.197-.325c.414 0 .828.093 1.15.325l4.925 2.87a2.358 2.358 0 0 1 1.196 2.038v14.217c0 .833.46 1.62 1.197 2.037l11.505 6.668c.368.232.828.232 1.197 0 .368-.185.598-.602.598-1.018V41.954ZM137.465.139c-.369-.185-.829-.185-1.151 0-.368.231-.598.602-.598 1.019v30.1a.89.89 0 0 1-.415.74.875.875 0 0 1-.828 0l-4.878-2.825a2.36 2.36 0 0 0-2.347 0L107.735 40.52a2.359 2.359 0 0 0-1.196 2.037V65.2c0 .834.46 1.621 1.196 2.038l19.513 11.345a2.36 2.36 0 0 0 2.347 0l19.513-11.345a2.359 2.359 0 0 0 1.196-2.038V8.752c0-.88-.46-1.667-1.196-2.084L137.465.138Zm-1.795 57.606c0 .232-.092.417-.276.51l-6.674 3.89a.678.678 0 0 1-.598 0l-6.673-3.89c-.184-.093-.276-.325-.276-.51v-7.78c0-.231.092-.416.276-.509l6.673-3.89a.678.678 0 0 1 .598 0l6.674 3.89c.184.093.276.324.276.51v7.78Zm66.728-7.965c.737-.417 1.151-1.204 1.151-2.038v-5.51c0-.834-.46-1.62-1.151-2.037l-19.375-11.3a2.358 2.358 0 0 0-2.347 0l-19.512 11.346a2.358 2.358 0 0 0-1.197 2.037v22.645c0 .833.46 1.62 1.197 2.037l19.374 11.114c.737.416 1.611.416 2.301 0l11.736-6.576c.368-.185.598-.602.598-1.019 0-.416-.23-.833-.598-1.018L174.97 58.115c-.368-.231-.598-.602-.598-1.018v-7.085c0-.417.23-.834.598-1.02l6.121-3.518a1.117 1.117 0 0 1 1.196 0l6.121 3.519c.368.231.598.602.598 1.019v5.556c0 .417.23.834.599 1.02.368.23.828.23 1.196 0l11.597-6.808Z" clip-rule="evenodd"/>
    <path fill="#5FA04E" fill-rule="evenodd" d="M181.551 48.715a.417.417 0 0 1 .461 0l3.727 2.177c.138.092.23.231.23.417v4.352a.487.487 0 0 1-.23.417l-3.727 2.177a.417.417 0 0 1-.461 0l-3.727-2.177a.487.487 0 0 1-.23-.417V51.31c0-.185.092-.325.23-.417l3.727-2.177Z" clip-rule="evenodd"/>
    <path fill="url(#b)" d="M76.301 28.988a2.36 2.36 0 0 0-2.347 0L54.579 40.241c-.736.417-1.15 1.204-1.15 2.038V64.83c0 .834.46 1.62 1.15 2.038L73.954 78.12a2.36 2.36 0 0 0 2.347 0l19.375-11.252c.736-.417 1.15-1.204 1.15-2.038V42.279c0-.834-.46-1.621-1.15-2.038L76.3 28.988Z"/>
    <path fill="url(#c)" d="M95.722 40.241 76.255 28.988a3.177 3.177 0 0 0-.598-.231L53.843 66.312c.184.231.414.417.644.556L73.954 78.12c.552.324 1.197.417 1.795.232l20.48-37.694a1.441 1.441 0 0 0-.507-.417Z"/>
    <path fill="url(#d)" d="M95.722 66.867a2.63 2.63 0 0 0 1.15-1.482L75.566 28.71c-.552-.093-1.15-.047-1.656.278L54.58 40.194l20.848 38.25c.276-.047.598-.14.875-.278l19.42-11.3Z"/>
  </g>
  <defs>
    <linearGradient id="b" x1="83.018" x2="65.325" y1="37.369" y2="73.241" gradientUnits="userSpaceOnUse">
      <stop stop-color="#3F873F"/>
      <stop offset=".33" stop-color="#3F8B3D"/>
      <stop offset=".637" stop-color="#3E9638"/>
      <stop offset=".934" stop-color="#3DA92E"/>
      <stop offset="1" stop-color="#3DAE2B"/>
    </linearGradient>
    <linearGradient id="c" x1="72.183" x2="121.552" y1="56.188" y2="19.937" gradientUnits="userSpaceOnUse">
      <stop offset=".138" stop-color="#3F873F"/>
      <stop offset=".402" stop-color="#52A044"/>
      <stop offset=".713" stop-color="#64B749"/>
      <stop offset=".908" stop-color="#6ABF4B"/>
    </linearGradient>
    <linearGradient id="d" x1="52.719" x2="97.551" y1="53.546" y2="53.546" gradientUnits="userSpaceOnUse">
      <stop offset=".092" stop-color="#6ABF4B"/>
      <stop offset=".287" stop-color="#64B749"/>
      <stop offset=".598" stop-color="#52A044"/>
      <stop offset=".862" stop-color="#3F873F"/>
    </linearGradient>
  </defs>
</svg>
